packages/icons/src/lock-fill.svg

<svg width="24" height="24" viewBox="0 0 24 24" fill="none" xmlns="http://www.w3.org/2000/svg">
<path fill-rule="evenodd" clip-rule="evenodd" d="M6 22C5.45 22 4.97917 21.8042 4.5875 21.4125C4.19583 21.0208 4 20.55 4 20V10C4 9.45 4.19583 8.97917 4.5875 8.5875C4.97917 8.19583 5.45 8 6 8H7V6C7 4.61667 7.4875 3.4375 8.4625 2.4625C9.4375 1.4875 10.6167 1 12 1C13.3833 1 14.5625 1.4875 15.5375 2.4625C16.5125 3.4375 17 4.61667 17 6V8H18C18.55 8 19.0208 8.19583 19.4125 8.5875C19.8042 8.97917 20 9.45 20 10V20C20 20.55 19.8042 21.0208 19.4125 21.4125C19.0208 21.8042 18.55 22 18 22H6ZM9 6V8H15V6C15 5.16667 14.7083 4.45833 14.125 3.875C13.5417 3.29167 12.8333 3 12 3C11.1667 3 10.4583 3.29167 9.875 3.875C9.29167 4.45833 9 5.16667 9 6ZM13.4125 16.4125C13.0208 16.8042 12.55 17 12 17C11.45 17 10.9792 16.8042 10.5875 16.4125C10.1958 16.0208 10 15.55 10 15C10 14.45 10.1958 13.9792 10.5875 13.5875C10.9792 13.1958 11.45 13 12 13C12.55 13 13.0208 13.1958 13.4125 13.5875C13.8042 13.9792 14 14.45 14 15C14 15.55 13.8042 16.0208 13.4125 16.4125Z" fill="black"/>
</svg>

<svg xmlns="http://www.w3.org/2000/svg" width="24" height="24" fill="none" viewBox="0 0 24 24">
  <path fill="#000" fill-rule="evenodd" d="M6 22c-.55 0-1.02-.196-1.412-.587A1.926 1.926 0 0 1 4 20V10c0-.55.196-1.02.588-1.412A1.926 1.926 0 0 1 6 8h1V6c0-1.383.487-2.563 1.463-3.538C9.438 1.487 10.617 1 12 1s2.563.488 3.537 1.462C16.512 3.438 17 4.617 17 6v2h1c.55 0 1.02.196 1.413.588.391.391.587.862.587 1.412v10c0 .55-.196 1.02-.587 1.413A1.926 1.926 0 0 1 18 22H6ZM9 6v2h6V6c0-.833-.292-1.542-.875-2.125A2.893 2.893 0 0 0 12 3c-.833 0-1.542.292-2.125.875A2.893 2.893 0 0 0 9 6Zm4.412 10.413A1.926 1.926 0 0 1 12 17c-.55 0-1.02-.196-1.412-.587A1.926 1.926 0 0 1 10 15c0-.55.196-1.02.588-1.412A1.926 1.926 0 0 1 12 13c.55 0 1.02.196 1.412.588.392.391.588.862.588 1.412 0 .55-.196 1.02-.588 1.413Z" clip-rule="evenodd"/>
</svg>
